svgs/thin/user-crown.svg

<svg xmlns="http://www.w3.org/2000/svg" viewBox="0 0 448 512"><!--! Font Awesome Pro 6.3.0 by @fontawesome - https://fontawesome.com License - https://fontawesome.com/license (Commercial License) Copyright 2023 Fonticons, Inc. --><path d="M272.8 304H175.2C78.56 304 0 379.4 0 472C0 494.1 18.59 512 41.44 512h365.1C429.4 512 448 494.1 448 472C448 379.4 369.4 304 272.8 304zM406.6 496H41.44C27.41 496 16 485.2 16 472C16 388.2 87.41 320 175.2 320h97.69C360.6 320 432 388.2 432 472C432 485.2 420.6 496 406.6 496zM104 128h240C348.4 128 352 124.4 352 120v-112c0-2.812-1.469-5.406-3.875-6.875c-2.406-1.406-5.406-1.5-7.875-.1875L284 30.94l-56.25-30c-2.312-1.25-5.188-1.25-7.5 0L164 30.94l-56.25-30C105.3-.375 102.3-.2813 99.88 1.125C97.47 2.594 96 5.188 96 8v112C96 124.4 99.59 128 104 128zM112 21.34l48.25 25.72c2.312 1.25 5.188 1.25 7.5 0L224 17.06l56.25 30c2.312 1.25 5.188 1.25 7.5 0L336 21.34V112h-224V21.34zM335.8 159.5C331.9 218.1 282.8 264 224 264S116.1 218.1 112.2 159.5C111.1 155.3 108.4 152 104.3 152c-.1562 0-.3438 0-.5313 .0313c-4.406 .2813-7.75 4.094-7.438 8.5C100.7 227.5 156.8 280 224 280s123.3-52.47 127.7-119.5c.3125-4.406-3.031-8.219-7.438-8.5C339.6 151.2 336 155.1 335.8 159.5z"/></svg>

<svg xmlns="http://www.w3.org/2000/svg" viewBox="0 0 448 512"><!-- Font Awesome Pro 6.0.0-alpha2 by @fontawesome - https://fontawesome.com License - https://fontawesome.com/license (Commercial License) --><path d="M272.844 304H175.156C78.562 304 0 379.375 0 472C0 494.062 18.594 512 41.438 512H406.562C429.406 512 448 494.062 448 472C448 379.375 369.438 304 272.844 304ZM406.562 496H41.438C27.406 496 16 485.219 16 472C16 388.188 87.406 320 175.156 320H272.844C360.594 320 432 388.188 432 472C432 485.219 420.594 496 406.562 496ZM104 128H344C348.406 128 352 124.406 352 120V8C352 5.188 350.531 2.594 348.125 1.125C345.719 -0.281 342.719 -0.375 340.25 0.937L284 30.938L227.75 0.938C225.438 -0.312 222.562 -0.312 220.25 0.938L164 30.938L107.75 0.938C105.281 -0.375 102.281 -0.281 99.875 1.125C97.469 2.594 96 5.188 96 8V120C96 124.406 99.594 128 104 128ZM112 21.344L160.25 47.062C162.562 48.312 165.438 48.312 167.75 47.062L224 17.062L280.25 47.062C282.562 48.312 285.438 48.312 287.75 47.062L336 21.344V112H112V21.344ZM335.781 159.469C331.906 218.094 282.812 264 224 264S116.094 218.094 112.219 159.469C111.969 155.25 108.438 152 104.25 152C104.094 152 103.906 152 103.719 152.031C99.312 152.313 95.969 156.125 96.281 160.531C100.688 227.531 156.781 280 224 280S347.312 227.531 351.719 160.531C352.031 156.125 348.687 152.313 344.281 152.031C339.562 151.219 336.031 155.094 335.781 159.469Z"/></svg>
